chrome/img/svgs/feedback-header.svg

<?xml version="1.0" encoding="UTF-8"?>
<svg width="348px" height="348px" viewBox="0 0 348 348" version="1.1" xmlns="http://www.w3.org/2000/svg" xmlns:xlink="http://www.w3.org/1999/xlink">
    <!-- Generator: Sketch 42 (36781) - http://www.bohemiancoding.com/sketch -->
    <title>feedback-header</title>
    <desc>Created with Sketch.</desc>
    <defs>
        <radialGradient cx="50%" cy="0%" fx="50%" fy="0%" r="233.931224%" id="radialGradient-1">
            <stop stop-color="#FFFFFF" offset="0%"></stop>
            <stop stop-color="#FAFAFA" offset="9.21513762%"></stop>
            <stop stop-color="#FAFAFA" offset="9.21513762%"></stop>
            <stop stop-color="#FFFFFF" offset="23.3723474%"></stop>
            <stop stop-color="#31A217" offset="100%"></stop>
        </radialGradient>
        <path d="M261.549948,240.560788 C257.733243,236.082369 254.931808,232.488053 252.683551,226.061043 C248.029304,208.710788 253.472219,188.826252 253.472219,188.826252 L253.441116,188.846294 C257.011224,178.12793 258.975116,166.672442 258.975116,154.749291 C258.975116,95.2382068 210.844203,47 151.487558,47 C92.1309126,47.002227 44,95.2404338 44,154.751518 C44,200.805076 72.8385588,240.088672 113.384937,255.505924 L113.364943,255.508151 C113.364943,255.508151 113.618205,255.610592 114.080297,255.782068 C119.394359,257.759609 124.908364,259.322936 130.582324,260.445324 C152.549482,265.411448 194.884246,271.04566 253.825453,261.14459 C268.470224,258.628124 268.747924,249.012106 261.549948,240.560788 Z M170.83323,179.078843 L130.864467,179.078843 C126.952234,179.078843 123.782014,175.898742 123.782014,171.977063 C123.782014,168.055385 126.954455,164.877511 130.864467,164.877511 L170.83323,164.877511 C174.747685,164.877511 177.915683,168.055385 177.915683,171.977063 C177.915683,175.898742 174.747685,179.078843 170.83323,179.078843 Z M187.963969,151.001316 L130.864467,151.001316 C126.952234,151.001316 123.782014,147.823442 123.782014,143.901763 C123.782014,139.980085 126.954455,136.802211 130.864467,136.802211 L187.963969,136.802211 C191.878424,136.802211 195.046423,139.982312 195.046423,143.901763 C195.046423,147.823442 191.876203,151.001316 187.963969,151.001316 Z" id="path-2"></path>
        <filter x="-50%" y="-50%" width="200%" height="200%" filterUnits="objectBoundingBox" id="filter-3">
            <feMorphology radius="0.5" operator="dilate" in="SourceAlpha" result="shadowSpreadOuter1"></feMorphology>
            <feOffset dx="0" dy="2" in="shadowSpreadOuter1" result="shadowOffsetOuter1"></feOffset>
            <feGaussianBlur stdDeviation="2" in="shadowOffsetOuter1" result="shadowBlurOuter1"></feGaussianBlur>
            <feComposite in="shadowBlurOuter1" in2="SourceAlpha" operator="out" result="shadowBlurOuter1"></feComposite>
            <feColorMatrix values="0 0 0 0 0   0 0 0 0 0   0 0 0 0 0  0 0 0 0.5 0" type="matrix" in="shadowBlurOuter1"></feColorMatrix>
        </filter>
    </defs>
    <g id="Playground" stroke="none" stroke-width="1" fill="none" fill-rule="evenodd">
        <g id="feedback-header" transform="translate(15.000000, 15.000000)">
            <circle id="Oval-3" stroke="#31A217" stroke-width="30" fill="#31A217" cx="159" cy="159" r="159"></circle>
            <g id="Shape" fill-rule="nonzero">
                <use fill="black" fill-opacity="1" filter="url(#filter-3)" xlink:href="#path-2"></use>
                <use stroke="#979797" stroke-width="1" fill="url(#radialGradient-1)" fill-rule="evenodd" xlink:href="#path-2"></use>
            </g>
        </g>
    </g>
</svg>

<svg width="348" height="348" viewBox="0 0 348 348" xmlns="http://www.w3.org/2000/svg" xmlns:xlink="http://www.w3.org/1999/xlink"><title>feedback-header</title><defs><radialGradient cy="0%" fx="50%" fy="0%" r="233.931%" id="c"><stop stop-color="#FFF" offset="0%"/><stop stop-color="#FAFAFA" offset="9.215%"/><stop stop-color="#FAFAFA" offset="9.215%"/><stop stop-color="#FFF" offset="23.372%"/><stop stop-color="#31A217" offset="100%"/></radialGradient><path d="M261.55 240.56c-3.817-4.478-6.618-8.072-8.866-14.499-4.655-17.35.788-37.235.788-37.235l-.03.02a107.684 107.684 0 0 0 5.533-34.097C258.975 95.24 210.845 47 151.488 47 92.13 47.002 44 95.24 44 154.752c0 46.053 28.839 85.337 69.385 100.754l-.02.002s.253.103.715.274a106.622 106.622 0 0 0 16.502 4.663c21.967 4.966 64.302 10.6 123.243.7 14.645-2.517 14.923-12.133 7.725-20.584zm-90.717-61.481h-39.969c-3.912 0-7.082-3.18-7.082-7.102s3.172-7.1 7.082-7.1h39.97c3.914 0 7.082 3.178 7.082 7.1 0 3.922-3.168 7.102-7.083 7.102zM187.964 151h-57.1c-3.912 0-7.082-3.178-7.082-7.1 0-3.92 3.172-7.099 7.082-7.099h57.1c3.914 0 7.082 3.18 7.082 7.1 0 3.921-3.17 7.1-7.082 7.1z" id="b"/><filter x="-50%" y="-50%" width="200%" height="200%" filterUnits="objectBoundingBox" id="a"><feMorphology radius=".5" operator="dilate" in="SourceAlpha" result="shadowSpreadOuter1"/><feOffset dy="2" in="shadowSpreadOuter1" result="shadowOffsetOuter1"/><feGaussianBlur stdDeviation="2" in="shadowOffsetOuter1" result="shadowBlurOuter1"/><feComposite in="shadowBlurOuter1" in2="SourceAlpha" operator="out" result="shadowBlurOuter1"/><feColorMatrix values="0 0 0 0 0 0 0 0 0 0 0 0 0 0 0 0 0 0 0.5 0" in="shadowBlurOuter1"/></filter></defs><g transform="translate(15 15)" fill="none" fill-rule="evenodd"><circle stroke="#31A217" stroke-width="30" fill="#31A217" cx="159" cy="159" r="159"/><g fill-rule="nonzero"><use fill="#000" filter="url(#a)" xlink:href="#b"/><use stroke="#979797" fill="url(#c)" fill-rule="evenodd" xlink:href="#b"/></g></g></svg>
